common/src/main/resources/icons/plugins/markdown/List_tight_dark.svg

<svg xmlns="http://www.w3.org/2000/svg" width="16" height="16" fill="#FFCA28" data-big="true" viewBox="0 0 24 24"><path d="M3 13h2v-2H3zm0 4h2v-2H3zm0-8h2V7H3zm4 4h14v-2H7zm0 4h14v-2H7zM7 7v2h14V7z"/></svg>

<!--
  - The MIT License (MIT)
  -
  - Copyright (c) 2015-2024 Elior "Mallowigi" Boukhobza
  -
  - Permission is hereby granted, free of charge, to any person obtaining a copy
  - of this software and associated documentation files (the "Software"), to deal
  - in the Software without restriction, including without limitation the rights
  - to use, copy, modify, merge, publish, distribute, sublicense, and/or sell
  - copies of the Software, and to permit persons to whom the Software is
  - furnished to do so, subject to the following conditions:
  -
  - The above copyright notice and this permission notice shall be included in all
  - copies or substantial portions of the Software.
  -
  - THE SOFTWARE IS PROVIDED "AS IS", WITHOUT WARRANTY OF ANY KIND, EXPRESS OR
  - IMPLIED, INCLUDING BUT NOT LIMITED TO THE WARRANTIES OF MERCHANTABILITY,
  - FITNESS FOR A PARTICULAR PURPOSE AND NONINFRINGEMENT. IN NO EVENT SHALL THE
  - AUTHORS OR COPYRIGHT HOLDERS BE LIABLE FOR ANY CLAIM, DAMAGES OR OTHER
  - LIABILITY, WHETHER IN AN ACTION OF CONTRACT, TORT OR OTHERWISE, ARISING FROM,
  - OUT OF OR IN CONNECTION WITH THE SOFTWARE OR THE USE OR OTHER DEALINGS IN THE
  - SOFTWARE.
  -->


<svg data-big="true" xmlns="http://www.w3.org/2000/svg" fill="#FFCA28" version="1.1" width="16px" height="16px"
     viewBox="0 0 24 24">
  <path d="M3,13H5V11H3V13M3,17H5V15H3V17M3,9H5V7H3V9M7,13H21V11H7V13M7,17H21V15H7V17M7,7V9H21V7H7Z"/>
</svg>
